X:1
T:Chi salirà per me
T:Chi salirà per me
T:Giaches de Wert
C:Giaches de Wert
%%score [ 1 2 3 4 ]
L:1/8
Q:1/4=72
M:4/4
K:F
V:1 treble nm="Soprano" snm="S"
V:2 treble nm="Alto" snm="A"
V:3 treble-8 nm="Tenor" snm="T"
V:4 bass nm="Bass" snm="B"
V:1
"^Ariosto\nOrlando Furioso" F2 c3 c de | f4 e2 f2 | d2 c3 d ec | de f3 e e2 | f2 z2 d2 B2 | %5
w: Chi sa- li- rà per|me, Ma- donn'|in cie- * * *||lo A ri-|
 c2 d3 c/B/ A2 | B2 G3 G F2 | E F2 E F2 z2 | F2 c3 c de | f4 e2 f2 | d2 c3 d ec | de f3 e e2 | %12
w: por- tarn' _ _ _|il mio per- dut'|in- ge- * gno|Che, poi ch'u- sci da'|bei vostr' oc-|chi~il te- * * *||
 f2 z2 d2 B2 | c2 d3 c/B/ A2 | B2 G3 G F2 | E F2 E F4 | z F G2 A2 B2 | c2 c3 c f2 | ed>c c2 =B c2 | %19
w: lo, Che'l cor|mi fiss', _ _ _|o- gnor per- den-|do ve- * gno?|Nè di tan- ta|jat- tu- ra mi|que- re- * * * lo,|
 z ccA B2 A2 | z ccA B2 Ac | cA B2 A2 A2 | B2 c2 d2 e2 | f4 e4- | e2 z2 c2 f>f | dfed e2 cd- | %26
w: Pur chè non cre- sca,|pur che non cre- sca, pur|che non cre- sca, ma|stia a que- sto|se- gno;|_ Ch'io du- bi-|to, se più se va sce- man-|
 d c2 =B c2 z2 | z4 z2 c2 | BAFG ABcA | d>c B2 AFGA | Bc dc/B/ ABcA | d>c B/A/ B>A A>GA/F/ | %32
w: * * * do,|Che|stol- to me n'an- drò pel mond' er-|ran- * * do, Che stol- to|me n'an- drò _ _ _ pel mond' er-|ran- * * * * * * * * *|
 G/F/ F2 E FF f>f | dfed e2 cd- | d c2 =B c2 z2 | z4 z2 c2 | BAFG ABcA | d>c B2 AFGA | %38
w: * * * * do, Ch'io du- bi-|to, se più se va sce- man-|* * * do,|Che|stol- to me n'an- drò pel mond' er-|ran- * * do, Che stol- to|
 Bc dc/B/ ABcA |[M:6/4] d>c B/A<BA<AG<GF/ F2 E |[M:4/4] F8 |] %41
w: me n'an- drò _ _ _ pel mond' er-|ran- * * * * * * * * * * *|do.|
V:2
 z2 C2 F3 G | AB c2 G2 A2- | A2 A2 G3 A | BGAB c4 | c4 z4 | z F2 D2 E F2 | F2 _E2 E2 DC | C4 C4 | %8
w: Chi sa- li-|rà per me, Ma- donn'|_ in cie- *||lo|A ri- por- tarn'|il mio per- dut' in-|ge- gno|
 z2 C2 F3 G | AB c2 G2 A2- | A2 A2 G3 A | BGAB c4 | c4 z4 | z F2 D2 E F2 | F2 _E3 E DC | %15
w: Che, poi ch'u-|sci da' bei vostr' oc-|* chi~il te- *||lo,|Che'l cor mi fiss',|o- gnor per- den- do|
 C2 C2 z2 C2 | D2 E2 F3 G | A2 A2 z2 c2- | cA B/A/G/F/ G2 G2- | GAAA G2 E2 | z AAA G2 EA | %21
w: ve- gno? Nè|di tan- ta jat-|tu- ra mi|_ que- re- * * * * lo,|_ Pur chè non cre- sca,|pur che non cre- sca, pur|
 AA G2 E2 F2 | D2 F2 F2 G2 | B4 G4 | z G c>c AcBA | BA G4 A2 | F2 G3 G cB | A3 G/F/ E/D/E/F/ GF | %28
w: che non cre- sca, ma|stia a que- sto|se- gno;|Ch'io du- bi- to, se più se|va sce- man- do,|se più se va sce-|man- * * * * * * * do,|
 z CDE FD A2 | G F2 E F3/2E/4D/4 E/C/F | DFDE FD A2 | G F2 E F2 F2 | z c c>c AcBA | BA G4 A2 | %34
w: Che stol- to me n'an- drò|pel mond' er- ran- * * * * *|do, Che stol- to me n'an- drò|pel mond' er- ran- do,|Ch'io du- bi- to, se più se|va sce- man- do,|
 F2 G3 G cB | A3 G/F/ E/D/E/F/ GF | z CDE FDAA | GFDE F2 EF | DF3/2E/4D/4E F2 z F | %39
w: se più se va sce-|man- * * * * * * * do,|Che stol- to me n'an- drò Che|stol- to me n'an- drò pel mond'|er- ran- * * * do, Che|
[M:6/4] GF DE F3 E DC C2 |[M:4/4] C8 |] %41
w: stol- to me n'an- drò pel mond' er- ran-|do.|
V:3
 z8 | z2 F2 c3 c | de f4 e2 | f2 f2 g4 | a2 f3 d2 e | f2 d2 B2 c2 | d2 c2 B3 A | GF G2 F4 | z8 | %9
w: |Chi sa- li-|rà per me, Ma-|donn' in cie-|lo A ri- por-|tarn' A ri- por-|tarn' il mio per-|dut' in- ge- gno||
 z2 F2 c3 c | de f4 e2 | f2 f2 g4 | a2 f2- f d2 e | f2 d2 B2 c2 | d2 c2 B3 A | GF G2 F4 | %16
w: Che, poi ch'u-|sci da' bei vostr'|oc- chi~il te-|lo, Che'l _ cor mi|fiss', Che'l cor mi|fiss', o- gnor per-|den- do ve- gno?|
 z4 z f d2 | c2 f2 g2 a2 | g f2 e d2 c2- | c2 z d dd c2 | A2 z d dd c2 | Addd c2 AA | G2 A2 B2 G2 | %23
w: Nè di|tan- ta jat- tu-|ra mi que- re- lo,|_ Pur chè non cre-|sca, pur che non cre-|sca, pur che non cre- sca, ma|stia a que- sto|
 d4 c4- | c4 z4 | z4 z c f>f | dfed e2 cd- | d c2 =B c4 | z4 z2 F2 | GABG d2 c2 | BA G2 F2 z F | %31
w: se- gno;|_|Che stol- to|me n'an- drò pel mond' er- ran-|* * * do,|Che|stol- to me n'an- drò pel|mond' er- ran- do, Che|
 GABG d2 c2 | BA G2 F4 | z4 z c f>f | dfed e2 cd- | d c2 =B c4 | z4 z2 F2 | GABG d2 c2 | %38
w: stol- to me n'an- drò pel|mond' er- ran- do,|Ch'io du- bi-|to, se più se va sce- man-|* * * do,|Che|stol- to me n'an- drò pel|
 BA G2 F2 z F |[M:6/4] GA BG d2 c2 BA G2 |[M:4/4] F8 |] %41
w: mond' er- ran- do, Che|stol- to me n'an- drò pel mond' er- ran-|do.|
V:4
 z8 | z4 C,2 F,2- | F,G,A,B, C2 C2 | B,2 D2 C4 | F,4 B,2 G,2 | A,2 B,2 G,2 F,2 | D,2 _E,4 F,2 | %7
w: |Chi sa-|* li- rà per me, Ma-|donn' in cie-|lo A ri-|por- tarn' il mio|per- dut' in-|
 C,4 F,4- | F,4 z4 | z4 C,2 F,2- | F,G,A,B, C2 C2 | B,2 D2 C4 | F,4 B,2 G,2 | A,2 B,2 G,2 F,2 | %14
w: ge- gno|_|Che, poi|_ ch'u- sci da' bei vostr'|oc- chi~il te-|lo, Che'l cor|mi fiss', o- gnor|
 D,2 _E,4 F,2 | C,4 F,2 z F, | D,2 C,2 F,2 B,2 | A,3 G,/F,/ CC F,/G,/A,/B,/ | CF, G,4 C,2 | %19
w: per- den- do|ve- gno? Nè|di tan- ta jat-|tu- * * * ra mi _ _ _|_ que- re- lo,|
 z F,F,F, G,2 A,2 | z F,F,F, G,2 A,F, | F,F, G,2 A,2 D,2 | G,2 F,2 D,2 C,2 | B,,4 C,4- | %24
w: Pur chè non cre- sca,|pur che non cre- sca, pur|che non cre- sca, ma|stia a que- sto|se- gno;|
 C,2 z C, F,>F, D,F, | G,A,C=B, C2 F,F, | B,A, G,2 C2 A,G, | F,E, D,2 C,2 z F, | G,A,B,G, D2 C2 | %29
w: _ Ch'io du- bi- to, se|più se va sce- man- do, Ch'io|du- bi- to, se più se|va sce- man- do, Che|stol- to me n'an- drò pel|
 B,A, G,2 F,2 z F, | G,A,B,G, D2 C2 | B,A, G,2 F,4 | z2 C,2 F,>F, D,F, | G,A,C=B, C2 F,F, | %34
w: mond' er- ran- do, Che|stol- to me n'an- drò pel|mond' er- ran- do,|Ch'io du- bi- to, se|più se va sce- man- do, Ch'io|
 B,A, G,2 C2 A,G, | F,E, D,2 C,2 z F, | G,A,B,G, D2 C2 | B,A, G,2 F,2 z F, | G,A,B,G, D2 C2 | %39
w: du- bi- to, se più se|va sce- man- do, Che|stol- to me n'an- drò pel|mond' er- ran- do, Che|stol- to me n'an- drò pel|
[M:6/4] B,A, G,2 F,3 C, D,F, C,2 |[M:4/4] F,8 |] %41
w: mond' er- ran- * * * * *|do.|

